Sweet-Rainbow/icons/scratch.svg

<?xml version="1.0" encoding="UTF-8" standalone="no"?>
<!-- Generator: Gravit.io -->

<svg
   xmlns:dc="http://purl.org/dc/elements/1.1/"
   xmlns:cc="http://creativecommons.org/ns#"
   xmlns:rdf="http://www.w3.org/1999/02/22-rdf-syntax-ns#"
   xmlns:svg="http://www.w3.org/2000/svg"
   xmlns="http://www.w3.org/2000/svg"
   xmlns:sodipodi="http://sodipodi.sourceforge.net/DTD/sodipodi-0.dtd"
   xmlns:inkscape="http://www.inkscape.org/namespaces/inkscape"
   style="isolation:isolate"
   viewBox="0 0 36 36"
   width="48"
   height="48"
   version="1.1"
   id="svg9"
   sodipodi:docname="scratch.svg"
   inkscape:version="0.92.4 (5da689c313, 2019-01-14)">
  <metadata
     id="metadata15">
    <rdf:RDF>
      <cc:Work
         rdf:about="">
        <dc:format>image/svg+xml</dc:format>
        <dc:type
           rdf:resource="http://purl.org/dc/dcmitype/StillImage" />
        <dc:title></dc:title>
      </cc:Work>
    </rdf:RDF>
  </metadata>
  <defs
     id="defs13" />
  <sodipodi:namedview
     pagecolor="#ffffff"
     bordercolor="#666666"
     borderopacity="1"
     objecttolerance="10"
     gridtolerance="10"
     guidetolerance="10"
     inkscape:pageopacity="0"
     inkscape:pageshadow="2"
     inkscape:window-width="640"
     inkscape:window-height="480"
     id="namedview11"
     showgrid="false"
     inkscape:zoom="29.365243"
     inkscape:cx="25.325443"
     inkscape:cy="32"
     inkscape:current-layer="svg9"
     units="px" />
  <linearGradient
     id="_lgradient_24"
     x1="0"
     y1="0.5"
     x2="1"
     y2="0.5"
     gradientTransform="matrix(47.001,0,0,42.091,0.999,2.959)"
     gradientUnits="userSpaceOnUse">
    <stop
       offset="0%"
       stop-opacity="1"
       style="stop-color:rgb(255,224,49)"
       id="stop2" />
    <stop
       offset="98.69565217391305%"
       stop-opacity="1"
       style="stop-color:rgb(252,82,82)"
       id="stop4" />
  </linearGradient>
  <g
     id="g826"
     transform="matrix(0.76594559,0,0,0.76594559,-0.76566695,-0.38623582)">
    <path
       id="path7"
       d="m 42.042,30.6 c 0.227,-0.978 0.367,-1.975 0.424,-2.979 0.592,0.377 1.143,0.816 1.644,1.309 0.78,0.78 1.46,1.65 2.03,2.59 v 0 c 0.287,0.469 0.903,0.619 1.375,0.335 v 0 c 0.472,-0.284 0.626,-0.9 0.345,-1.375 v 0 C 47.2,29.4 46.42,28.4 45.52,27.51 44.75,26.74 43.87,26.09 42.91,25.57 42.759,25.489 42.606,25.412 42.452,25.338 42.242,22.013 41.13,18.796 39.23,16.04 v 0 H 39.5 V 14.54 5.58 C 39.52,5.01 39.38,4.45 39.09,3.96 38.7,3.32 38,2.94 37.25,2.96 36.58,3 35.95,3.27 35.47,3.74 L 30.02,8.4 29.472,8.871 v 0 C 27.703,8.321 25.863,8.04 24.01,8.04 c -1.868,0 -3.716,0.283 -5.483,0.83 v 0 0 0 L 17.98,8.4 12.53,3.74 C 12.05,3.27 11.42,3 10.75,2.96 10,2.94 9.3,3.32 8.91,3.96 8.62,4.45 8.48,5.01 8.5,5.58 v 8.96 1.5 H 8.772 C 7.931,17.259 7.234,18.582 6.7,19.98 5.984,21.875 5.58,23.876 5.51,25.902 v 0 C 4.775,26.361 4.093,26.897 3.48,27.51 2.58,28.4 1.8,29.4 1.14,30.48 v 0 c -0.281,0.475 -0.127,1.091 0.345,1.375 v 0 c 0.472,0.284 1.088,0.134 1.375,-0.335 v 0 C 3.43,30.58 4.11,29.71 4.89,28.93 5.113,28.711 5.345,28.503 5.591,28.312 5.695,29.41 5.897,30.493 6.194,31.549 5.577,32.363 5.03,33.224 4.56,34.13 4,35.18 3.5,36.27 3.07,37.39 v 0 c -0.199,0.513 0.057,1.091 0.57,1.29 v 0 c 0.513,0.199 1.091,-0.057 1.29,-0.57 v 0 c 0.41,-1.04 0.87,-2.06 1.4,-3.05 0.207,-0.402 0.434,-0.795 0.686,-1.171 0.482,1.097 1.067,2.154 1.754,3.151 2.13,3.1 5.15,5.47 8.66,6.8 2.1,0.79 4.32,1.2 6.56,1.21 4.24,-0.01 8.36,-1.47 11.66,-4.14 v 0 c 0.64,-0.519 0.739,-1.462 0.22,-2.105 v 0 C 35.351,38.162 34.406,38.061 33.76,38.58 v 0 C 31,40.82 27.55,42.04 23.99,42.05 22.11,42.04 20.25,41.7 18.5,41.03 15.56,39.92 13.03,37.93 11.24,35.34 10.359,34.065 9.681,32.674 9.248,31.206 9.478,31.007 9.724,30.826 9.98,30.66 10.6,30.26 11.31,30.03 12.05,30 v 0 c 0.552,-0.028 0.978,-0.498 0.95,-1.05 v 0 C 12.972,28.398 12.502,27.972 11.95,28 v 0 c -1.08,0.05 -2.14,0.39 -3.05,0.97 -0.055,0.035 -0.109,0.071 -0.161,0.11 v 0 C 8.582,28.301 8.512,27.504 8.504,26.702 8.799,26.592 9.102,26.504 9.41,26.43 10.29,26.21 11.18,26.07 12.08,26 v 0 c 0.552,-0.044 0.964,-0.528 0.92,-1.08 v 0 C 12.956,24.368 12.472,23.956 11.92,24 v 0 c -1.01,0.08 -2.01,0.24 -2.99,0.48 -0.102,0.026 -0.204,0.053 -0.304,0.083 0.154,-1.2 0.45,-2.382 0.884,-3.523 1.12,-2.94 3.1,-5.47 5.69,-7.26 1.032,-0.709 2.141,-1.289 3.3,-1.729 v 1.491 0 c 0,0.828 0.672,1.5 1.5,1.5 v 0 c 0.828,0 1.5,-0.672 1.5,-1.5 v 0 -2.297 0 c 0.331,-0.055 0.665,-0.098 1,-0.131 v 0 4.428 0 c 0,0.828 0.672,1.5 1.5,1.5 v 0 c 0.828,0 1.5,-0.672 1.5,-1.5 v 0 -4.43 c 0.335,0.032 0.668,0.075 1,0.129 v 2.301 0 c 0,0.828 0.672,1.5 1.5,1.5 v 0 c 0.828,0 1.5,-0.672 1.5,-1.5 v 0 -1.492 0 0 0 0 c 2.94,1.12 5.47,3.1 7.26,5.69 1.36,1.967 2.234,4.217 2.548,6.566 v 0 C 38.573,24.163 37.829,24.059 37.08,24 v 0 C 36.528,23.956 36.044,24.368 36,24.92 v 0 c -0.044,0.552 0.368,1.036 0.92,1.08 v 0 c 0.868,0.068 1.727,0.2 2.576,0.408 0.004,0.047 0.004,0.095 0.004,0.142 0,0.681 -0.045,1.358 -0.131,2.03 C 38.645,28.235 37.853,28.037 37.05,28 v 0 C 36.498,27.972 36.028,28.398 36,28.95 v 0 c -0.028,0.552 0.398,1.022 0.95,1.05 v 0 c 0.711,0.029 1.394,0.242 1.995,0.616 -0.121,0.483 -0.276,0.958 -0.455,1.424 v 0 c -0.293,0.773 0.097,1.64 0.87,1.935 v 0 c 0.773,0.295 1.642,-0.092 1.94,-0.865 v 0 c 0.02,-0.054 0.04,-0.107 0.059,-0.162 0.488,0.67 0.931,1.376 1.311,2.112 0.53,0.99 0.99,2.01 1.4,3.05 v 0 c 0.199,0.513 0.777,0.769 1.29,0.57 v 0 c 0.513,-0.199 0.769,-0.777 0.57,-1.29 v 0 C 45.5,36.27 45,35.18 44.44,34.13 43.9,33.09 43.26,32.11 42.53,31.19 42.373,30.989 42.208,30.794 42.042,30.6 Z M 26.59,36.794 v 0 1.746 c 0,0.27 -0.1,0.52 -0.29,0.71 -0.19,0.19 -0.44,0.29 -0.71,0.29 H 24.4 c -0.26,0 -0.52,-0.1 -0.7,-0.29 -0.19,-0.19 -0.3,-0.44 -0.3,-0.71 v -1.37 -0.334 c 0.133,-0.055 0.263,-0.116 0.39,-0.184 0.42,-0.22 0.82,-0.48 1.2,-0.78 0.33,0.26 0.68,0.49 1.05,0.68 0.178,0.094 0.362,0.174 0.55,0.242 z M 15.41,10.157 c -0.657,0.344 -1.295,0.729 -1.91,1.153 -0.705,0.486 -1.373,1.019 -2,1.595 V 6.8 Z m 17.179,0 c 1.42,0.743 2.734,1.667 3.911,2.746 V 6.8 Z M 16.8,22.812 v 0 c -0.701,0.442 -1.628,0.231 -2.07,-0.47 v 0 c -0.442,-0.701 -0.231,-1.628 0.47,-2.07 v 0 c 0.6,-0.38 1.25,-0.68 1.93,-0.9 0.64,-0.21 1.32,-0.32 2,-0.33 1.37,0.03 2.69,0.48 3.77,1.3 v 0 c 0.662,0.503 0.794,1.446 0.295,2.105 v 0 c -0.499,0.66 -1.438,0.792 -2.095,0.295 v 0 c -0.58,-0.44 -1.27,-0.68 -1.99,-0.7 -0.35,0.01 -0.71,0.07 -1.05,0.18 -0.44,0.14 -0.87,0.34 -1.26,0.59 z m 11,0 v 0 c -0.701,0.442 -1.628,0.231 -2.07,-0.47 v 0 c -0.442,-0.701 -0.231,-1.628 0.47,-2.07 v 0 c 0.6,-0.38 1.25,-0.68 1.93,-0.9 0.64,-0.21 1.32,-0.32 2,-0.33 1.37,0.03 2.69,0.48 3.77,1.3 v 0 c 0.662,0.503 0.794,1.446 0.295,2.105 v 0 c -0.499,0.66 -1.438,0.792 -2.095,0.295 v 0 c -0.58,-0.44 -1.27,-0.68 -1.99,-0.7 -0.35,0.01 -0.71,0.07 -1.05,0.18 -0.44,0.14 -0.87,0.34 -1.26,0.59 z M 25,30.4 23.08,28 h 3.84 z m 3.59,6.601 v 1.539 c 0,0.8 -0.31,1.56 -0.88,2.12 -0.56,0.57 -1.32,0.88 -2.12,0.88 H 24.4 c -0.79,0 -1.56,-0.31 -2.12,-0.88 C 21.72,40.1 21.4,39.34 21.4,38.54 v -1.37 -0.016 c -0.569,-0.058 -1.116,-0.246 -1.61,-0.542 -0.62,-0.38 -1.16,-0.89 -1.6,-1.48 v 0 c -0.326,-0.447 -0.227,-1.074 0.22,-1.4 v 0 c 0.447,-0.325 1.074,-0.227 1.4,0.22 v 0 c 0.28,0.38 0.63,0.71 1.03,0.96 0.28,0.16 0.59,0.25 0.92,0.26 0.38,-0.01 0.76,-0.11 1.1,-0.29 0.87,-0.46 1.62,-1.12 1.62,-1.12 0.309,-0.447 0.766,-0.46 1.02,-0.03 0,0 0.67,0.63 1.46,1.05 0.33,0.17 0.69,0.26 1.05,0.26 0.36,0 0.72,-0.09 1.04,-0.26 0.45,-0.24 0.87,-0.55 1.22,-0.93 v 0 c 0.381,-0.397 1.015,-0.413 1.415,-0.035 v 0 c 0.4,0.378 0.42,1.012 0.045,1.415 v 0 c -0.51,0.53 -1.1,0.98 -1.76,1.33 -0.429,0.222 -0.899,0.372 -1.38,0.439 z M 22.02,26 h 5.96 c 0.34,-0.01 0.68,0.08 0.97,0.26 0.39,0.25 0.62,0.68 0.6,1.15 -0.02,0.37 -0.16,0.73 -0.41,1.02 l -2.73,3.4 c -0.33,0.44 -0.86,0.71 -1.41,0.71 -0.55,0 -1.08,-0.27 -1.41,-0.71 l -2.73,-3.4 c -0.25,-0.29 -0.39,-0.65 -0.41,-1.02 -0.02,-0.47 0.21,-0.9 0.6,-1.15 0.29,-0.18 0.63,-0.27 0.97,-0.26 z"
       style="fill:url(#_lgradient_24);fill-rule:evenodd"
       inkscape:connector-curvature="0" />
  </g>
</svg>

<?xml version="1.0" encoding="UTF-8" standalone="no"?><!-- Generator: Gravit.io --><svg xmlns="http://www.w3.org/2000/svg" xmlns:xlink="http://www.w3.org/1999/xlink" style="isolation:isolate" viewBox="0 0 48 48" width="48pt" height="48pt"><linearGradient id="_lgradient_24" x1="0" y1="0.5" x2="1" y2="0.5" gradientTransform="matrix(47.001,0,0,42.091,0.999,2.959)" gradientUnits="userSpaceOnUse"><stop offset="0%" stop-opacity="1" style="stop-color:rgb(255,224,49)"/><stop offset="98.69565217391305%" stop-opacity="1" style="stop-color:rgb(252,82,82)"/></linearGradient><path d=" M 42.042 30.6 C 42.269 29.622 42.409 28.625 42.466 27.621 C 43.058 27.998 43.609 28.437 44.11 28.93 C 44.89 29.71 45.57 30.58 46.14 31.52 L 46.14 31.52 C 46.427 31.989 47.043 32.139 47.515 31.855 L 47.515 31.855 C 47.987 31.571 48.141 30.955 47.86 30.48 L 47.86 30.48 C 47.2 29.4 46.42 28.4 45.52 27.51 C 44.75 26.74 43.87 26.09 42.91 25.57 C 42.759 25.489 42.606 25.412 42.452 25.338 C 42.242 22.013 41.13 18.796 39.23 16.04 L 39.23 16.04 L 39.5 16.04 L 39.5 14.54 L 39.5 5.58 C 39.52 5.01 39.38 4.45 39.09 3.96 C 38.7 3.32 38 2.94 37.25 2.96 C 36.58 3 35.95 3.27 35.47 3.74 L 30.02 8.4 L 29.472 8.871 L 29.472 8.871 C 27.703 8.321 25.863 8.04 24.01 8.04 C 22.142 8.04 20.294 8.323 18.527 8.87 L 18.527 8.87 L 18.527 8.87 L 18.527 8.87 L 17.98 8.4 L 12.53 3.74 C 12.05 3.27 11.42 3 10.75 2.96 C 10 2.94 9.3 3.32 8.91 3.96 C 8.62 4.45 8.48 5.01 8.5 5.58 L 8.5 14.54 L 8.5 16.04 L 8.772 16.04 C 7.931 17.259 7.234 18.582 6.7 19.98 C 5.984 21.875 5.58 23.876 5.51 25.902 L 5.51 25.902 C 4.775 26.361 4.093 26.897 3.48 27.51 C 2.58 28.4 1.8 29.4 1.14 30.48 L 1.14 30.48 C 0.859 30.955 1.013 31.571 1.485 31.855 L 1.485 31.855 C 1.957 32.139 2.573 31.989 2.86 31.52 L 2.86 31.52 C 3.43 30.58 4.11 29.71 4.89 28.93 C 5.113 28.711 5.345 28.503 5.591 28.312 C 5.695 29.41 5.897 30.493 6.194 31.549 C 5.577 32.363 5.03 33.224 4.56 34.13 C 4 35.18 3.5 36.27 3.07 37.39 L 3.07 37.39 C 2.871 37.903 3.127 38.481 3.64 38.68 L 3.64 38.68 C 4.153 38.879 4.731 38.623 4.93 38.11 L 4.93 38.11 C 5.34 37.07 5.8 36.05 6.33 35.06 C 6.537 34.658 6.764 34.265 7.016 33.889 C 7.498 34.986 8.083 36.043 8.77 37.04 C 10.9 40.14 13.92 42.51 17.43 43.84 C 19.53 44.63 21.75 45.04 23.99 45.05 C 28.23 45.04 32.35 43.58 35.65 40.91 L 35.65 40.91 C 36.29 40.391 36.389 39.448 35.87 38.805 L 35.87 38.805 C 35.351 38.162 34.406 38.061 33.76 38.58 L 33.76 38.58 C 31 40.82 27.55 42.04 23.99 42.05 C 22.11 42.04 20.25 41.7 18.5 41.03 C 15.56 39.92 13.03 37.93 11.24 35.34 C 10.359 34.065 9.681 32.674 9.248 31.206 C 9.478 31.007 9.724 30.826 9.98 30.66 C 10.6 30.26 11.31 30.03 12.05 30 L 12.05 30 C 12.602 29.972 13.028 29.502 13 28.95 L 13 28.95 C 12.972 28.398 12.502 27.972 11.95 28 L 11.95 28 C 10.87 28.05 9.81 28.39 8.9 28.97 C 8.845 29.005 8.791 29.041 8.739 29.08 L 8.739 29.08 C 8.582 28.301 8.512 27.504 8.504 26.702 C 8.799 26.592 9.102 26.504 9.41 26.43 C 10.29 26.21 11.18 26.07 12.08 26 L 12.08 26 C 12.632 25.956 13.044 25.472 13 24.92 L 13 24.92 C 12.956 24.368 12.472 23.956 11.92 24 L 11.92 24 C 10.91 24.08 9.91 24.24 8.93 24.48 C 8.828 24.506 8.726 24.533 8.626 24.563 C 8.78 23.363 9.076 22.181 9.51 21.04 C 10.63 18.1 12.61 15.57 15.2 13.78 C 16.232 13.071 17.341 12.491 18.5 12.051 L 18.5 13.542 L 18.5 13.542 C 18.5 14.37 19.172 15.042 20 15.042 L 20 15.042 C 20.828 15.042 21.5 14.37 21.5 13.542 L 21.5 13.542 L 21.5 11.245 L 21.5 11.245 C 21.831 11.19 22.165 11.147 22.5 11.114 L 22.5 11.114 L 22.5 15.542 L 22.5 15.542 C 22.5 16.37 23.172 17.042 24 17.042 L 24 17.042 C 24.828 17.042 25.5 16.37 25.5 15.542 L 25.5 15.542 L 25.5 11.112 C 25.835 11.144 26.168 11.187 26.5 11.241 L 26.5 13.542 L 26.5 13.542 C 26.5 14.37 27.172 15.042 28 15.042 L 28 15.042 C 28.828 15.042 29.5 14.37 29.5 13.542 L 29.5 13.542 L 29.5 12.05 L 29.5 12.05 L 29.5 12.05 L 29.5 12.05 L 29.5 12.05 C 32.44 13.17 34.97 15.15 36.76 17.74 C 38.12 19.707 38.994 21.957 39.308 24.306 L 39.308 24.306 C 38.573 24.163 37.829 24.059 37.08 24 L 37.08 24 C 36.528 23.956 36.044 24.368 36 24.92 L 36 24.92 C 35.956 25.472 36.368 25.956 36.92 26 L 36.92 26 C 37.788 26.068 38.647 26.2 39.496 26.408 C 39.5 26.455 39.5 26.503 39.5 26.55 C 39.5 27.231 39.455 27.908 39.369 28.58 C 38.645 28.235 37.853 28.037 37.05 28 L 37.05 28 C 36.498 27.972 36.028 28.398 36 28.95 L 36 28.95 C 35.972 29.502 36.398 29.972 36.95 30 L 36.95 30 C 37.661 30.029 38.344 30.242 38.945 30.616 C 38.824 31.099 38.669 31.574 38.49 32.04 L 38.49 32.04 C 38.197 32.813 38.587 33.68 39.36 33.975 L 39.36 33.975 C 40.133 34.27 41.002 33.883 41.3 33.11 L 41.3 33.11 C 41.32 33.056 41.34 33.003 41.359 32.948 C 41.847 33.618 42.29 34.324 42.67 35.06 C 43.2 36.05 43.66 37.07 44.07 38.11 L 44.07 38.11 C 44.269 38.623 44.847 38.879 45.36 38.68 L 45.36 38.68 C 45.873 38.481 46.129 37.903 45.93 37.39 L 45.93 37.39 C 45.5 36.27 45 35.18 44.44 34.13 C 43.9 33.09 43.26 32.11 42.53 31.19 C 42.373 30.989 42.208 30.794 42.042 30.6 Z  M 26.59 36.794 L 26.59 36.794 L 26.59 38.54 C 26.59 38.81 26.49 39.06 26.3 39.25 C 26.11 39.44 25.86 39.54 25.59 39.54 L 24.4 39.54 C 24.14 39.54 23.88 39.44 23.7 39.25 C 23.51 39.06 23.4 38.81 23.4 38.54 L 23.4 37.17 L 23.4 36.836 C 23.533 36.781 23.663 36.72 23.79 36.652 C 24.21 36.432 24.61 36.172 24.99 35.872 C 25.32 36.132 25.67 36.362 26.04 36.552 C 26.218 36.646 26.402 36.726 26.59 36.794 L 26.59 36.794 L 26.59 36.794 L 26.59 36.794 L 26.59 36.794 Z  M 15.41 10.157 C 14.753 10.501 14.115 10.886 13.5 11.31 C 12.795 11.796 12.127 12.329 11.5 12.905 L 11.5 6.8 L 15.41 10.157 L 15.41 10.157 L 15.41 10.157 L 15.41 10.157 L 15.41 10.157 L 15.41 10.157 L 15.41 10.157 L 15.41 10.157 L 15.41 10.157 L 15.41 10.157 L 15.41 10.157 L 15.41 10.157 L 15.41 10.157 Z  M 32.589 10.157 C 34.009 10.9 35.323 11.824 36.5 12.903 L 36.5 6.8 L 32.589 10.157 L 32.589 10.157 L 32.589 10.157 L 32.589 10.157 L 32.589 10.157 L 32.589 10.157 L 32.589 10.157 L 32.589 10.157 L 32.589 10.157 L 32.589 10.157 L 32.589 10.157 L 32.589 10.157 L 32.589 10.157 L 32.589 10.157 Z  M 16.8 22.812 L 16.8 22.812 C 16.099 23.254 15.172 23.043 14.73 22.342 L 14.73 22.342 C 14.288 21.641 14.499 20.714 15.2 20.272 L 15.2 20.272 C 15.8 19.892 16.45 19.592 17.13 19.372 C 17.77 19.162 18.45 19.052 19.13 19.042 C 20.5 19.072 21.82 19.522 22.9 20.342 L 22.9 20.342 C 23.562 20.845 23.694 21.788 23.195 22.447 L 23.195 22.447 C 22.696 23.107 21.757 23.239 21.1 22.742 L 21.1 22.742 C 20.52 22.302 19.83 22.062 19.11 22.042 C 18.76 22.052 18.4 22.112 18.06 22.222 C 17.62 22.362 17.19 22.562 16.8 22.812 L 16.8 22.812 L 16.8 22.812 L 16.8 22.812 L 16.8 22.812 L 16.8 22.812 L 16.8 22.812 L 16.8 22.812 L 16.8 22.812 L 16.8 22.812 L 16.8 22.812 L 16.8 22.812 Z  M 27.8 22.812 L 27.8 22.812 C 27.099 23.254 26.172 23.043 25.73 22.342 L 25.73 22.342 C 25.288 21.641 25.499 20.714 26.2 20.272 L 26.2 20.272 C 26.8 19.892 27.45 19.592 28.13 19.372 C 28.77 19.162 29.45 19.052 30.13 19.042 C 31.5 19.072 32.82 19.522 33.9 20.342 L 33.9 20.342 C 34.562 20.845 34.694 21.788 34.195 22.447 L 34.195 22.447 C 33.696 23.107 32.757 23.239 32.1 22.742 L 32.1 22.742 C 31.52 22.302 30.83 22.062 30.11 22.042 C 29.76 22.052 29.4 22.112 29.06 22.222 C 28.62 22.362 28.19 22.562 27.8 22.812 L 27.8 22.812 L 27.8 22.812 L 27.8 22.812 L 27.8 22.812 L 27.8 22.812 L 27.8 22.812 L 27.8 22.812 L 27.8 22.812 L 27.8 22.812 L 27.8 22.812 Z  M 25 30.4 L 23.08 28 L 26.92 28 L 25 30.4 L 25 30.4 L 25 30.4 L 25 30.4 L 25 30.4 L 25 30.4 L 25 30.4 L 25 30.4 Z  M 28.59 37.001 L 28.59 38.54 C 28.59 39.34 28.28 40.1 27.71 40.66 C 27.15 41.23 26.39 41.54 25.59 41.54 L 24.4 41.54 C 23.61 41.54 22.84 41.23 22.28 40.66 C 21.72 40.1 21.4 39.34 21.4 38.54 L 21.4 37.17 L 21.4 37.154 C 20.831 37.096 20.284 36.908 19.79 36.612 C 19.17 36.232 18.63 35.722 18.19 35.132 L 18.19 35.132 C 17.864 34.685 17.963 34.058 18.41 33.732 L 18.41 33.732 C 18.857 33.407 19.484 33.505 19.81 33.952 L 19.81 33.952 C 20.09 34.332 20.44 34.662 20.84 34.912 C 21.12 35.072 21.43 35.162 21.76 35.172 C 22.14 35.162 22.52 35.062 22.86 34.882 C 23.73 34.422 24.48 33.762 24.48 33.762 C 24.789 33.315 25.246 33.302 25.5 33.732 C 25.5 33.732 26.17 34.362 26.96 34.782 C 27.29 34.952 27.65 35.042 28.01 35.042 C 28.37 35.042 28.73 34.952 29.05 34.782 C 29.5 34.542 29.92 34.232 30.27 33.852 L 30.27 33.852 C 30.651 33.455 31.285 33.439 31.685 33.817 L 31.685 33.817 C 32.085 34.195 32.105 34.829 31.73 35.232 L 31.73 35.232 C 31.22 35.762 30.63 36.212 29.97 36.562 C 29.541 36.784 29.071 36.934 28.59 37.001 L 28.59 37.001 L 28.59 37.001 L 28.59 37.001 L 28.59 37.001 Z  M 22.02 26 L 27.98 26 C 28.32 25.99 28.66 26.08 28.95 26.26 C 29.34 26.51 29.57 26.94 29.55 27.41 C 29.53 27.78 29.39 28.14 29.14 28.43 L 26.41 31.83 C 26.08 32.27 25.55 32.54 25 32.54 C 24.45 32.54 23.92 32.27 23.59 31.83 L 20.86 28.43 C 20.61 28.14 20.47 27.78 20.45 27.41 C 20.43 26.94 20.66 26.51 21.05 26.26 C 21.34 26.08 21.68 25.99 22.02 26 L 22.02 26 L 22.02 26 L 22.02 26 L 22.02 26 L 22.02 26 L 22.02 26 L 22.02 26 Z " fill-rule="evenodd" fill="url(#_lgradient_24)"/></svg>
